X:1
T:Title
%%score { ( 1 3 ) | 2 }
L:1/8
Q:1/4=100
M:6/8
K:F
V:1 treble nm="Grand Piano"
V:3 treble 
V:2 bass 
V:1
 A2 c d2 =B | c2 A F2 C | D2 [DG] [DF]2 D | F6 | A2 c d2 =B | c2 A F2 A | G2 c c2 =B | [CEc]6 | %8
w: C.~Austin~Miles * * *||||||||
 [Bd]2 [Ac] [GB]2 [EG] | [Ac]2 [GB] [FA]2 F | [B,D]2 E [DF]2 [^CB] | [CA]6 | %12
w: ||||
 [Ac]2 [Bd] [Ac]2 [FA] | [_Ec]2 [DB] [DF]2 [^CG] | [CA]2 F [CA]2 G | F6[K:bass] | %16
w: ||||
 C3 D2[K:treble] E | F3 A3 | [Ec]2 [Fc] [Gc]2 [CEB] | [CFA]6 | [B,DG]3 [B,DF]2[K:bass] [F,B,D] | %21
w: |||||
 [A,C]3[K:treble] [A,CF]3 | [CEG]3 [=B,DF]3 | E3 D2 C | C3 D2 E | F3 A3 | [Ec]2 [Fc] [Gc]2 [EB] | %27
w: ||||||
 [FA]6 | [DG]3 [DF]2 D | C3 F3 | c2- [A,Fc] [Gc]2 E | F6- |[M:3/8] F3 |] %33
w: ||||||
V:2
 [F,CF]2 [F,A,F] [F,_A,F]2 [F,A,F] | [F,A,F]2 [F,CF] [F,A,C]2 [F,A,] | %2
 [B,,F,B,]2 [B,,B,] [B,,B,]2 [B,,B,] | [F,A,C]6 | [F,CF]2 [F,A,F] [F,_A,F]2 [F,A,F] | %5
 [F,A,F]2 [F,CF] [F,A,C]2[K:treble] [F,CF] | [G,CE]2 [G,CE] [G,DF]2 [G,DF] | C,6 | C,G,C C,G,C | %9
 F,A,C F,A,C | B,,F,B, B,,F,B, | F,,A,,C, F,A,C | F,A,C F,A,C | B,,D,F, B,F,B,, | %14
 C,F,A, C,D,[E,B,] | [F,A,]6 | [F,A,]3 [C,G,B,]2 [C,G,B,] | [F,A,]3 [F,A,C]3 | %18
 [C,G,]2 [C,A,] [C,B,]2 C, | F,6 | B,,3 B,,2 B,, | F,3 F,3 | C,3 G,,3 | %23
 [C,B,C]3 [C,F,B,]2 [C,E,B,] | [F,A,]3 [C,G,=B,]2 [C,G,_B,] | [F,A,]3 [F,A,C]3 | %26
 [C,G,]2 [C,A,] [C,B,]2 [C,C] | [F,C]6 | [B,,B,]3 [B,,B,]2 [B,,F,B,] | [C,F,A,]3 [C,A,C]3 | %30
 .[C,G,]3 [C,B,]2 [C,B,C] | [F,A,C]3 [B,,B,]2 [D,B,] |[M:3/8] [F,A,]3 |] %33
V:3
 x6 | x6 | x6 | x6 | x6 | x6 | x6 | x6 | x6 | x6 | x6 | x6 | x6 | x6 | x6 | z[K:bass] D,C, F,,3 | %16
 x5[K:treble] x | x6 | x6 | x6 | x5[K:bass] x | x3[K:treble] x3 | x6 | x6 | x6 | x6 | x6 | x6 | %28
 x6 | x6 | .E3 z3 | z3 D2 D |[M:3/8] C3 |] %33

